svgs/regular/thumbs-up.svg

<svg xmlns="http://www.w3.org/2000/svg" viewBox="0 0 512 512"><!--! Font Awesome Pro 6.0.0-alpha3 by @fontawesome - https://fontawesome.com License - https://fontawesome.com/license (Commercial License) --><path d="M96 191.1H32c-17.67 0-32 14.33-32 31.1v223.1c0 17.67 14.33 31.1 32 31.1h64c17.67 0 32-14.33 32-31.1V223.1C128 206.3 113.7 191.1 96 191.1zM512 227c0-36.89-30.05-66.92-66.97-66.92h-99.86C354.7 135.1 360 113.5 360 100.8c0-33.8-26.2-68.78-70.06-68.78c-46.61 0-59.36 32.44-69.61 58.5c-31.66 80.5-60.33 66.39-60.33 93.47c0 12.84 10.36 23.99 24.02 23.99c5.256 0 10.55-1.721 14.97-5.26c76.76-61.37 57.97-122.7 90.95-122.7c16.08 0 22.06 12.75 22.06 20.79c0 7.404-7.594 39.55-25.55 71.59c-2.046 3.646-3.066 7.686-3.066 11.72c0 13.92 11.43 23.1 24 23.1h137.6C455.5 208.1 464 216.6 464 227c0 9.809-7.766 18.03-17.67 18.71c-12.66 .8593-22.36 11.4-22.36 23.94c0 15.47 11.39 15.95 11.39 28.91c0 25.37-35.03 12.34-35.03 42.15c0 11.22 6.392 13.03 6.392 22.25c0 22.66-29.77 13.76-29.77 40.64c0 4.515 1.11 5.961 1.11 9.456c0 10.45-8.516 18.95-18.97 18.95h-52.53c-25.62 0-51.02-8.466-71.5-23.81l-36.66-27.51c-4.315-3.245-9.37-4.811-14.38-4.811c-13.85 0-24.03 11.38-24.03 24.04c0 7.287 3.312 14.42 9.596 19.13l36.67 27.52C235 468.1 270.6 480 306.6 480h52.53c35.33 0 64.36-27.49 66.8-62.2c17.77-12.23 28.83-32.51 28.83-54.83c0-3.046-.2187-6.107-.6406-9.122c17.84-12.15 29.28-32.58 29.28-55.28c0-5.311-.6406-10.54-1.875-15.64C499.9 270.1 512 250.2 512 227z"/></svg>

<svg xmlns="http://www.w3.org/2000/svg" viewBox="0 0 512 512"><!-- Font Awesome Pro 6.0.0-alpha2 by @fontawesome - https://fontawesome.com License - https://fontawesome.com/license (Commercial License) --><path d="M96 191.95H32C14.326 191.95 0 206.274 0 223.94V447.869C0 465.538 14.326 479.859 32 479.859H96C113.674 479.859 128 465.538 128 447.869V223.94C128 206.274 113.674 191.95 96 191.95ZM512 227.017C512 190.122 481.953 160.101 445.031 160.101H345.172C354.672 135.983 360 113.475 360 100.775C360 66.974 333.797 32 289.938 32C243.328 32 230.578 64.443 220.328 90.497C188.665 170.993 160 156.883 160 183.969C160 196.811 170.362 207.956 184.017 207.956C189.273 207.956 194.563 206.236 198.984 202.697C275.74 141.323 256.953 79.985 289.938 79.985C306.016 79.985 312 92.731 312 100.775C312 108.179 304.406 140.326 286.453 172.362C284.408 176.008 283.387 180.048 283.387 184.086C283.387 198.011 294.82 208.085 307.391 208.085H445.031C455.484 208.085 464 216.583 464 227.017C464 236.826 456.234 245.043 446.328 245.73C433.672 246.589 423.971 257.129 423.971 269.666C423.971 285.138 435.359 285.614 435.359 298.573C435.359 323.947 400.327 310.909 400.327 340.72C400.327 351.943 406.719 353.748 406.719 362.974C406.719 385.636 376.953 376.736 376.953 403.612C376.953 408.127 378.063 409.573 378.063 413.068C378.063 423.518 369.547 432.015 359.094 432.015H306.563C280.938 432.015 255.547 423.549 235.063 408.21L198.406 380.703C194.091 377.458 189.037 375.893 184.024 375.893C170.179 375.893 159.996 387.211 159.996 399.87C159.996 407.158 163.309 414.356 169.594 419.066L206.266 446.589C235.016 468.129 270.625 480 306.562 480H359.094C394.422 480 423.453 452.509 425.891 417.801C443.656 405.57 454.719 385.295 454.719 362.974C454.719 359.928 454.5 356.867 454.078 353.852C471.922 341.7 483.359 321.269 483.359 298.573C483.359 293.262 482.719 288.029 481.484 282.937C499.891 270.956 512 250.244 512 227.017Z"/></svg>
